!!!COM: Leszczyński, Władysław
!!!CDT: 1616-1680-09-24
!!!TXO: Latin
!!!OTL@@LAT: Credo
!!!ODT: 
!!!ARL: Archiwum Kapituły Katedralnej na Wawelu
!!!voices:	4
!!title: @{OTL}, @{GTL}, ed. @{ENC}
!!!pag:
!!!GTL: Missa cum Credo per Octavas
!!!EFL: 
!!!YEM: Creative Commons CC/BY/NC/SA 4.0
!!!ENC: Marcin Konik
!!!EED: Marcin Konik
!!!EEV: 
!!!ONB: Encoded in vim by Marcin Konik
!!!CharacterEncoding: utf-8
!!!RDF**kern: l=long note in original notation
!!!RDF**kern: i=editorial accidental
!!muse2ps: z14jc180F
!!!END: 2015-02-13
!!!YOO:
**kern	**text	**kern	**text	**kern	**text	**kern	**text
*part4	*part4	*part3	*part3	*part2	*part2	*part1	*part1
*staff4	*staff4	*staff3	*staff3	*staff2	*staff2	*staff1	*staff1
*clefF4	*	*clefGv2	*	*clefG2	*	*clefG2	*
*k[]	*	*k[]	*	*k[]	*	*k[]	*
*M3/1	*	*M3/1	*	*M3/1	*	*M3/1	*
=1-	=1-	=1-	=1-	=1-	=1-	=1-	=1-
1GG	Pa-	1d	Pa-	1g	Pa-	1b-	Pa-
2GG	-trem	2d	-trem	2g	-trem	2b-	-trem
2BB-	o-	2c	o-	2d	o-	2b-	o-
2AA	-mni-	2d	-mni-	2g	-mni-	2b-	-mni-
2GG	-po-	2e	-po-	2g	-po-	2b-	-po-
=2	=2	=2	=2	=2	=2	=2	=2
0D	-ten-	0d	-ten-	0f	-ten-	0a	-ten-
1D	-tem	1d	-tem	1f	-tem	1a	-tem
=3	=3	=3	=3	=3	=3	=3	=3
1B-	Pa-	1B-	Pa-	1f	Pa-	1dd	Pa-
2B-	-trem	2B-	-trem	2f	-trem	2dd	-trem
2B-	o-	2B-	o-	2e	o-	2dd	o-
2A	-mni-	2B-	-mni-	2f	-mni-	2dd	-mni-
2G	-po-	2B-	-po-	2g	-po-	2dd	-po-
=4	=4	=4	=4	=4	=4	=4	=4
0F	-ten-	0A	-ten-	0f	-ten-	0cc	-ten-
1F	.	1A	.	1f	.	1cc	.
=5	=5	=5	=5	=5	=5	=5	=5
1F	-fa-	1c	-fa-	1f	-fa-	1a	-fa-
1F	-cto-	1c	-cto-	1f	-cto-	1a	-cto-
1D	-rem	1d	-rem	1f	-rem	1b-	-rem
=6	=6	=6	=6	=6	=6	=6	=6
0C	cae-	0e-	cae-	1.e-	cae-	0cc	cae-
.	.	.	.	2f	.	.	.
1C	-li	1e-	-li	1g	-li	1cc	-li
=7	=7	=7	=7	=7	=7	=7	=7
1C	et	1e-	et	1e-	et	1cc	et
0G	ter-	0d	ter-	0g	ter-	0b	ter-
=8	=8	=8	=8	=8	=8	=8	=8
0.C	-rae	0.c	-rae	0.e	-rae	0.cc	-rae
=9	=9	=9	=9	=9	=9	=9	=9
1C	fa-	1G	fa-	1e	fa-	1cc	fa-
1C	-cto-	1G	-cto-	1e	-cto-	2cc	-cto-
.	.	.	.	.	.	2a	.
1AA	-rem	1A	-rem	1f	-rem	2b-	-rem
.	.	.	.	.	.	2cc	.
=10	=10	=10	=10	=10	=10	=10	=10
1.BB-	cae-	1.B-	cae-	1.d	cae-	1.dd	cae-
2AA	.	2c	.	2e	.	2cc	.
1GG	-li	1d	-li	2f	-li	1b-	-li
.	.	.	.	2g	.	.	.
=11	=11	=11	=11	=11	=11	=11	=11
1GG	et	1d	et	1g	et	1b-	et
0D	ter-	0d	ter-	0f#	ter-	0a	ter-
=12	=12	=12	=12	=12	=12	=12	=12
1GG	.	1B-	-rae	1g	.	1g	-rae
1G	-vi-	1B-	vi-	1d	-vi-	1g	vi-
1D	-si-	1A	-si-	1d	-si-	1f	-si-
=13	=13	=13	=13	=13	=13	=13	=13
1.G	-bi-	1.B-	-bi-	1.d	-bi-	1.g	-bi-
2A	-li-	2c	-li-	2d	-li-	2a	-li-
1B-	-um	1d	-um	1d	-um	1b-	-um
=14	=14	=14	=14	=14	=14	=14	=14
0F	o-	0c	o-	1.f	o-	0a	o-
.	.	.	.	2e	.	.	.
1G	-mni-	1B-	-mni-	2d	-mni-	1g	-mni-
.	.	.	.	2e	.	.	.
=15	=15	=15	=15	=15	=15	=15	=15
0.F	-um	0.c	-um	0.f	-um	0.a	-um
=16	=16	=16	=16	=16	=16	=16	=16
0BB-	et	0d	et	0f	et	0b-	et
1BB-	in-	1d	in-	1f	in-	1b-	in-
=17	=17	=17	=17	=17	=17	=17	=17
0FF	-vi-	0c	-vi-	0f	-vi-	1.a	-vi-
.	.	.	.	.	.	2g	.
1GG	-si-	1B-	-si-	1d	-si-	2a	-si-
.	.	.	.	.	.	2g	.
=18	=18	=18	=18	=18	=18	=18	=18
0D	-bi-	0A	-bi-	0d	-bi-	0f#	-bi-
1D	-li-	1A	-li-	1d	-li-	1f#	-li-
=19	=19	=19	=19	=19	=19	=19	=19
0.G	-um	0.G	-um	0.d	-um	0.g	-um
=20	=20	=20	=20	=20	=20	=20	=20
0F	et	0c	et	0f	et	0a	et
1D	in	1B-	in	1f	in	1b-	in
=21	=21	=21	=21	=21	=21	=21	=21
0C	u-	0G	u-	0e	u-	0cc	u-
1F	-num	1A	-num	1f	-num	1a	-num
=22	=22	=22	=22	=22	=22	=22	=22
1.F	Do-	1.A	Do-	1.f	Do-	1.cc	Do-
2F	-mi-	2A	-mi-	2f	-mi-	2cc	-mi-
2G	-num	1G	-num	1g	-num	1b-	-num
2GG	.	.	.	.	.	.	.
=23	=23	=23	=23	=23	=23	=23	=23
1AA	Je-	1A	Je-	1f	Je-	1a	Je-
1BB-	-sum	1d	-sum	1f	-sum	1b-	-sum
1C	Chri-	1c	Chri-	1e	Chri-	1g	Chri-
=24	=24	=24	=24	=24	=24	=24	=24
0.F	-stum	0.c	-stum	0.f	-stum	0.a	-stum
=25	=25	=25	=25	=25	=25	=25	=25
1.F	Fi-	1.A	Fi-	1.f	Fi-	1.cc	Fi-
2F	-li-	2B-	-li-	2f	-li-	2b-	-li-
1F	-um	1c	-um	1f	-um	1a	-um
=26	=26	=26	=26	=26	=26	=26	=26
0B-	De-	0B-	De-	0d	De-	0dd	De-
1B-	-i	1B-	-i	1d	-i	1dd	-i
=27	=27	=27	=27	=27	=27	=27	=27
1.c	De-	1.e-	De-	1.g	De-	1.cc	De-
2c	-i	2d	-i	2f	-i	2dd	-i
2c	u-	1c	u-	2g	u-	1ee-	u-
2c	-ni-	.	.	2e-	-ni-	.	.
=28	=28	=28	=28	=28	=28	=28	=28
0G	-ge-	1B	-ni-	0d	-ge-	1dd	-ni-
.	.	1.B	-ge-	.	.	1.dd	-ge-
1G	-ni-	.	.	1d	-ni-	.	.
.	.	2B	-ni-	.	.	2dd	-ni-
=29	=29	=29	=29	=29	=29	=29	=29
0.C	-tum	0.c	-tum	0.e	-tum	0.cc	-tum
=30	=30	=30	=30	=30	=30	=30	=30
1.F	Fi-	1.A	Fi-	1.a	Fi-	1.cc	Fi-
2F	-li-	2A	-li-	2g	-li-	2cc	-li-
1F	-um	1A	-um	1f	-um	1a	-um
=31	=31	=31	=31	=31	=31	=31	=31
0F	De-	0A	De-	0a	De-	1.cc	De-
.	.	.	.	.	.	2b-	.
1F	-i	1A	-i	1f	-i	1a	-i
=32	=32	=32	=32	=32	=32	=32	=32
1.FF	Fi-	1.c	Fi-	1.f	Fi-	1.a	Fi-
2FF	-li-	2c	-li-	2g	-li-	2a	-li-
1FF	-um	1A	-um	1a	-um	1a	-um
=33	=33	=33	=33	=33	=33	=33	=33
0FF	De-	0c	De-	0f	De-	0cc	De-
1FF	-i	1A	.	1f	.	1a	.
=34	=34	=34	=34	=34	=34	=34	=34
1.C	u-	0c	-u-	0e	-u-	0g	-u-
2BB-	.	.	.	.	.	.	.
1AA	-ni-	1c	-ni-	1f	-ni-	1a	-ni-
=35	=35	=35	=35	=35	=35	=35	=35
0C	-ge-	1.c	-ge-	0e	-ge-	1.g	-ge-
.	.	2A	.	.	.	2f	.
1C	-ni-	2B-	-ni-	1e	-ni-	2g	-ni-
.	.	2c	.	.	.	2a	.
=36	=36	=36	=36	=36	=36	=36	=36
0.F	-tum	0.c	-tum	0.f	-tum	0.a	-tum
=37	=37	=37	=37	=37	=37	=37	=37
0F	et	0A	et	0f	et	0f	et
1E	ex	1c	ex	1c	ex	1g	ex
=38	=38	=38	=38	=38	=38	=38	=38
0F	Pa-	0F	Pa-	0f	Pa-	0a	Pa-
1BB-	-tre	1B-	-tre	1d	-tre	1b-	-tre
=39	=39	=39	=39	=39	=39	=39	=39
0F	na-	0F	na-	0f	na-	0a	na-
1C	.	1G	.	1e	.	1g	.
=40	=40	=40	=40	=40	=40	=40	=40
0.F	-tum	0.c	-tum	0.f	-tum	0.a	-tum
=41	=41	=41	=41	=41	=41	=41	=41
0F	an-	0c	an-	0c	an-	0f	an-
1E	-te	1c	-te	1c	-te	1g	-te
=42	=42	=42	=42	=42	=42	=42	=42
1.D	o-	1.A	o-	1.f	o-	1.a	o-
2C	-mni-	2A	-mni-	2f	-mni-	2a	-mni-
1BB-	-a	1d	-a	1d	-a	1b-	-a
=43	=43	=43	=43	=43	=43	=43	=43
1.C	o-	1.c	o-	1.e	o-	1.g	o-
2C	-mni-	2c	-mni-	2e	-mni-	2e	-mni-
2AA	-a	1A	.	1f	-a	2f	-a
2BB-	.	.	.	.	.	2g	.
=44	=44	=44	=44	=44	=44	=44	=44
0C	sae-	0G	-sae-	0e	sae-	0g	[sae]-
1C	-cu-	1G	-cu-	1e	-cu-	1g	-cu-
=45	=45	=45	=45	=45	=45	=45	=45
0.F	-la	0.A	-la	0.f	-la	0.f	-la
=46	=46	=46	=46	=46	=46	=46	=46
1BB-	De-	1d	De-	1d	De-	1f	De-
1BB-	-um	1d	-um	1d	-um	1f	-um
1FF	de	1c	de	1f	de	1a	de
=47	=47	=47	=47	=47	=47	=47	=47
0BB-	De-	0d	De-	1.d	De-	0f	De-
.	.	.	.	2e	.	.	.
1FF	-o	1c	-o	1f	-o	1a	-o
=48	=48	=48	=48	=48	=48	=48	=48
1C	lu-	1A	lu-	1r	.	1cc	lu-
1F	-men	1A	-men	1r	.	1cc	-men
1C	de	1A	de	1e	lu-	1cc	de
=49	=49	=49	=49	=49	=49	=49	=49
1.FF	lu-	1.c	lu-	0f	-men	1.a	lu-
2FF	-mi-	2c	-mi-	.	.	2b-	.
1C	-ne	1G	-ne	1e	de	1cc	.
=50	=50	=50	=50	=50	=50	=50	=50
0D	de	1d	de	2d	lu-	0b-	.
.	.	.	.	2e	.	.	.
.	.	1d	lu-	1f	.	.	.
2.E	lu-	2c	-mi-	2e	.	1g	-mi-
.	.	2B-	.	2e	-mi-	.	.
4E	-mi-	.	.	.	.	.	.
=51	=51	=51	=51	=51	=51	=51	=51
0.F	-ne	0.A	-ne	0.f	-ne	0.a	-ne
=52	=52	=52	=52	=52	=52	=52	=52
0C	De-	0G	De-	0e	De-	0cc	De-
1FF	-um	1A	-um	1f	-um	1a	-um
=53	=53	=53	=53	=53	=53	=53	=53
0F	ve-	0A	ve-	0f	ve-	0f	ve-
1E	-rum	1G	-rum	1e	-rum	1g	-rum
=54	=54	=54	=54	=54	=54	=54	=54
1F	de	1c	de	1c	de	0a	de
1F	De-	1c	De-	1c	De-	.	.
1BB-	-o	1d	-o	2d	-o	1b-	De-
.	.	.	.	2e	.	.	.
=55	=55	=55	=55	=55	=55	=55	=55
1AA	De-	1c	de	0f	ve-	1a	-o
1BB-	-o	2B-	De-	.	.	0g	ve-
.	.	2A	-o	.	.	.	.
1C	ve-	1G	ve-	1e	.	.	.
=56	=56	=56	=56	=56	=56	=56	=56
0.F	-ro	0.A	-ro	0.f	-ro	0.f	-ro
=57	=57	=57	=57	=57	=57	=57	=57
0BB-	De-	0d	De-	0f	De-	0b-	De-
1BB-	-um	1d	-um	1f	-um	1b-	-um
=58	=58	=58	=58	=58	=58	=58	=58
0FF	ve-	0c	ve-	0f	ve-	0a	ve-
1FF	-rum	1c	-rum	1f	-rum	1a	-rum
=59	=59	=59	=59	=59	=59	=59	=59
0GG	De-	0B-	De-	0g	De-	0g	De-
1GG	-um	1B-	-um	1g	-um	1g	-um
=60	=60	=60	=60	=60	=60	=60	=60
0D	ve-	0A	ve-	0f	ve-	0a	ve-
1D	.	1A	.	1f	.	1a	.
=61	=61	=61	=61	=61	=61	=61	=61
1G	-de	1d	-de	1g	-de	1b-	-de
2C	De-	2c	De-	2c	De-	2a	De-
2C	-o	2B-	-o	2e-	-o	1g	-o
1D	ve-	1A	ve-	1d	ve-	.	.
.	.	.	.	.	.	2f#	ve-
=62	=62	=62	=62	=62	=62	=62	=62
1G	-ro	1G	-ro	1d	-ro	1g	-ro
1G	ge-	1G	ge-	1.d	ge-	1b-	ge-
1D	-ni-	1F	-ni-	.	.	1a	-ni-
.	.	.	.	2d	-ni-	.	.
=63	=63	=63	=63	=63	=63	=63	=63
1.G	-tum	1.G	-tum	1.d	-tum	1.b-	-tum
2A	.	2A	.	2e	.	2cc	.
1B-	non	1B-	non	1f	non	1dd	non
=64	=64	=64	=64	=64	=64	=64	=64
0F	fa-	0A	fa-	1.f	fa-	0cc	fa-
.	.	.	.	2e	.	.	.
1G	.	1G	.	2d	.	1b-	.
.	.	.	.	2e	.	.	.
=65	=65	=65	=65	=65	=65	=65	=65
0.F	-ctum	2A	-ctum	0.f	-ctum	2cc	-ctum
.	.	1A	con-	.	.	1cc	con-
.	.	2A	-sub-	.	.	2cc	-sub-
.	.	2A	-stan-	.	.	2cc	-stan-
.	.	2A	-ti-	.	.	2cc	-ti-
=66	=66	=66	=66	=66	=66	=66	=66
1.B-	con-	0d	-a-	1.f	con-	0b-	-a-
2B-	-sub-	.	.	2c	-sub-	.	.
2B-	-stan-	1d	-lem	2f	-stan-	1b-	-lem
2B-	-ti-	.	.	2f	-ti-	.	.
=67	=67	=67	=67	=67	=67	=67	=67
0F	-a-	1.c	con-	0f	-a-	1.a	con-
.	.	2c	-sub-	.	.	2a	-sub-
1G	-lem	2c	-stan-	1f	-lem	2a	-stan-
.	.	2c	-ti-	.	.	2a	-ti-
=68	=68	=68	=68	=68	=68	=68	=68
1G	Pa-	1B-	-a-	1B-	Pa-	1g	-a-
0D	.	1.A	.	0d	.	1.f#	.
.	.	2A	-Pa-	.	.	2f#	-Pa-
=69	=69	=69	=69	=69	=69	=69	=69
1GG	-tri	1G	-tri	1d	-tri	1g	-tri
1G	per	1G	per	1d	per	1b-	per
1G	quem	1G	quem	1d	quem	1b-	quem
=70	=70	=70	=70	=70	=70	=70	=70
1.C	o-	1.G	o-	1.e	o-	1.cc	o-
2C	-mni-	2G	-mni-	2e	-mni-	2cc	-mni-
1C	-a	1G	-a	1e	-a	1cc	-a
=71	=71	=71	=71	=71	=71	=71	=71
0F	per	0c	per	0f	per	0a	per
1F	quem	1c	quem	1f	quem	1a	quem
=72	=72	=72	=72	=72	=72	=72	=72
1.BB-	o-	1.d	o-	1.d	o-	1.b-	o-
2BB-	-mni-	2d	-mni-	2d	-mni-	2b-	-mni-
1BB-	.	1d	.	1d	.	1b-	.
=73	=73	=73	=73	=73	=73	=73	=73
1BB-	-fa-	1d	-fa-	1d	-fa-	0g	-fa-
1C	-cta	1c	-cta	1e-	-cta	.	.
1D	.	1A	.	1d	.	1f#	-cta
=74	=74	=74	=74	=74	=74	=74	=74
0.GG	sunt	0.B-	sunt	0.d	sunt	0.g	sunt
=75	=75	=75	=75	=75	=75	=75	=75
0D	qui	0A	qui	0d	qui	0f	qui
1D	pro-	1F	pro-	1d	pro-	1a	pro-
=76	=76	=76	=76	=76	=76	=76	=76
0D	-pter	0A	-pter	0d	-pter	0f	-pter
1D	nos	1F	nos	1d	nos	1a	nos
=77	=77	=77	=77	=77	=77	=77	=77
1.GG	ho-	1.B-	ho-	1.B-	ho-	1r	.
.	.	.	.	.	.	1r	.
2GG	-mi-	2B-	-mi-	2B-	-mi-	.	.
2D	-nes	2A	-nes	2d	-nes	1a	nos
2D	nos	2A	nos	2d	nos	.	.
=78	=78	=78	=78	=78	=78	=78	=78
1.GG	ho-	1.G	ho-	1.g	ho-	1.b-	ho-
2GG	-mi-	2G	-mi-	2g	-mi-	2b-	-mi-
1D	-nes	1A	-nes	1d	-nes	1a	-nes
=79	=79	=79	=79	=79	=79	=79	=79
0F	qui	0c	qui	0f	qui	0a	qui
1F	pro-	1c	pro-	1a	pro-	1f	pro-
=80	=80	=80	=80	=80	=80	=80	=80
0F	-pter	0c	-pter	0a	-pter	0a	-pter
1F	nos	1c	nos	1f	nos	1f	nos
=81	=81	=81	=81	=81	=81	=81	=81
1.BB-	ho-	1.d	ho-	1r	.	1r	.
.	.	.	.	1r	.	1r	.
2BB-	-mi-	2d	-mi-	.	.	.	.
2F	-nes	2c	-nes	1f	nos	1cc	nos
2F	nos	2c	nos	.	.	.	.
=82	=82	=82	=82	=82	=82	=82	=82
1.D	ho-	1.A	ho-	1.d	ho-	1.dd	ho-
2D	-mi-	2A	-mi-	2d	-mi-	2dd	-mi-
1F	-nes	1A	-nes	1f	-nes	1cc	-nes
=83	=83	=83	=83	=83	=83	=83	=83
1F	et	1c	et	1f	et	1a	et
1F	pro-	1c	pro-	1f	pro-	1a	pro-
1D	-pter	1d	-pter	1f	-pter	1b-	-pter
=84	=84	=84	=84	=84	=84	=84	=84
0C	no-	0e-	no-	0e-	no-	0cc	no-
1C	-stram	1e-	-stram	1e-	-stram	1cc	-stram
=85	=85	=85	=85	=85	=85	=85	=85
1C	sa-	1e-	sa-	1g	sa-	0cc	sa-
0F	-lu-	0d	-lu-	0f	-lu-	.	.
.	.	.	.	.	.	1b	-lu-
=86	=86	=86	=86	=86	=86	=86	=86
0C	-tem	0c	-tem	0e	-tem	0cc	-tem
1C	de-	1c	de-	1e	de-	1cc	de-
=87	=87	=87	=87	=87	=87	=87	=87
1.FF	-scen-	1.c	-scen-	1.f	-scen-	1.cc	-scen-
2FF	-dit	2c	-dit	2f	-dit	2cc	-dit
1FF	de-	1A	de-	1f	de-	1cc	de-
=88	=88	=88	=88	=88	=88	=88	=88
1.BB-	-scen-	1B-	-scen-	1.d	-scen-	1.dd	-scen-
.	.	2B-	.	.	.	.	.
2AA	-dit	2c	-de-	2c	-dit	2cc	-dit
1GG	de-	1d	-scen-	1d	de-	1b-	de-
=89	=89	=89	=89	=89	=89	=89	=89
1AA	-scen-	1A	.	1f	-scen-	1cc	-scen-
2BB-	.	1F	-de	2f	.	2b-	.
2BB-	-de	.	.	2f	-de	2b-	-de
1C	cae-	1G	cae-	1e	cae-	1g	cae-
=90	=90	=90	=90	=90	=90	=90	=90
0.FF	-lis	0.A	-lis	0.f	-lis	0.a	-lis
=91	=91	=91	=91	=91	=91	=91	=91
1F	Et	1c	Et	1f	Et	1a	Et
1F	in-	1c	in-	1f	in-	1a	in-
1F	-car-	1c	-car-	1f	-car-	1a	-car-
=92	=92	=92	=92	=92	=92	=92	=92
0BB-	-na-	0d	-na-	0f	-na-	0b-	-na-
1C	-tus	1e	-tus	1g	-tus	1cc	-tus
=93	=93	=93	=93	=93	=93	=93	=93
0FF	est	0f	est	0a	est	0cc	est
1FF	de	1f	de	1a	de	1cc	de
=94	=94	=94	=94	=94	=94	=94	=94
0C	Spi-	1.e	Spi-	1.a	Spi-	1.a	Spi-
.	.	2e	-ri-	2a	-ri-	2b	-ri-
1C	-ri-	1e	-tu	1g	-tu	1cc	-tu
=95	=95	=95	=95	=95	=95	=95	=95
0G	-tu	1e	San-	0g	San-	0cc	San-
.	.	0d	.	.	.	.	.
1G	San-	.	.	1g	.	1b	.
=96	=96	=96	=96	=96	=96	=96	=96
0.C	-cto	0.c	-cto	0.g	-cto	0.cc	-cto
=97	=97	=97	=97	=97	=97	=97	=97
0F	ex	0c	ex	0f	ex	0a	ex
1F	Ma-	1c	Ma-	1f	Ma-	1a	Ma-
=98	=98	=98	=98	=98	=98	=98	=98
0F	-ri-	0c	-ri-	0f	-ri-	0a	-ri-
1BB-	-a	1d	-a	1d	-a	1b-	-a
=99	=99	=99	=99	=99	=99	=99	=99
0F	Vir-	0c	Vir-	0f	Vir-	0a	Vir-
1F	-gi-	1c	-gi-	1f	-gi-	1a	-gi-
=100	=100	=100	=100	=100	=100	=100	=100
0G	-ne	0B-	-ne	0d	-ne	0g	-ne
1GG	et	1B-	et	1d	et	1g	et
=101	=101	=101	=101	=101	=101	=101	=101
0AA	ho-	0A	ho-	0f	ho-	0f	ho-
2AA	-mo-	1A	-mo-	1f	-mo-	1f	-mo-
2BB-	.	.	.	.	.	.	.
=102	=102	=102	=102	=102	=102	=102	=102
0C	-fa-	0G	-fa-	0e	-fa-	1f	-fa-
.	.	.	.	.	.	0e	-ctus
1C	-ctus	1G	-ctus	1e	-ctus	.	.
=103	=103	=103	=103	=103	=103	=103	=103
0.F	est	0.F	est	0.f	est	0.f	est
=104	=104	=104	=104	=104	=104	=104	=104
0F	ex	0A	ex	0f	ex	0cc	ex
1F	Ma-	1A	Ma-	1f	Ma-	1cc	Ma-
=105	=105	=105	=105	=105	=105	=105	=105
0F	-ri-	0A	-ri-	0f	-ri-	0cc	-ri-
1BB-	-a	1B-	-a	1d	-a	1dd	-a
=106	=106	=106	=106	=106	=106	=106	=106
1.F	Vir-	1.A	Vir-	1.f	Vir-	1.cc	Vir-
2F	-gi-	2G	-gi-	2f	-gi-	2cc	-gi-
2G	-ne	2G	-ne	2e-	-ne	2b-	-ne
2G	et	2G	et	2e-	et	2b-	et
=107	=107	=107	=107	=107	=107	=107	=107
0F	ho-	1.F	ho-	1.f	ho-	0a	ho-
.	.	2G	.	2e	.	.	.
1D	-mo	2A	-mo	1d	-mo	1a	-mo
.	.	2B-	.	.	.	.	.
=108	=108	=108	=108	=108	=108	=108	=108
0C	fa-	0c	fa-	0e	fa-	0g	fa-
1C	-ctus	1c	-ctus	1e	-ctus	1g	-ctus
=109	=109	=109	=109	=109	=109	=109	=109
0.F	.	0.A	.	0.f	.	0.a	.
=110	=110	=110	=110	=110	=110	=110	=110
0F	Cru-	0.r	.	0f	Cru-	0a	Cru-
1C	-ci-	.	.	1a	-ci-	1cc	-ci-
=111	=111	=111	=111	=111	=111	=111	=111
1D	-fi-	0.r	.	0g	-fi-	0b-	-fi-
1E	.	.	.	.	.	.	.
1F	-xus	.	.	1f	-xus	1a	-xus
=112	=112	=112	=112	=112	=112	=112	=112
1.C	e-	0.r	.	1.e	e-	1.g	e-
2C	-ti-	.	.	2e	-ti-	2g	-ti-
1C	-am	.	.	1e	-am	1g	-am
=113	=113	=113	=113	=113	=113	=113	=113
1FF	pro-	0.r	.	1f	pro-	1a	pro-
0C	-no-	.	.	1f	-no-	0g	-no-
.	.	.	.	1e	.	.	.
=114	=114	=114	=114	=114	=114	=114	=114
0.FF	-bis	0.r	.	0.f	-bis	0.f	-bis
=115	=115	=115	=115	=115	=115	=115	=115
0FF	e-	0A	e-	0.r	.	0f	e-
1C	-ti-	1c	-ti-	.	.	1a	-ti-
=116	=116	=116	=116	=116	=116	=116	=116
1.D	-am	0B-	-am	0.r	.	0g	-am
2E	.	.	.	.	.	.	.
1F	pro	1A	pro-	.	.	1f	pro
=117	=117	=117	=117	=117	=117	=117	=117
1C	no-	1G	-no-	0.r	.	1e	no-
1C	-bis	1G	-bis	.	.	1e	-bis
1c	sub	1G	sub	.	.	1e	sub
=118	=118	=118	=118	=118	=118	=118	=118
1.F	Pon-	1.A	Pon-	0.r	.	1.f	Pon-
2F	-ti-	2A	-ti-	.	.	2f	-ti-
1F	-o	1A	-o	.	.	1f	-o
=119	=119	=119	=119	=119	=119	=119	=119
0F	Pi-	1A	Pi-	0.r	.	0f	Pi-
.	.	0G	-la-	.	.	.	.
1C	-la-	.	.	.	.	1e	-la-
=120	=120	=120	=120	=120	=120	=120	=120
0.F	-to	0.F	-to	0.r	.	0.f	-to
=121	=121	=121	=121	=121	=121	=121	=121
0C	pas-	0G	pas-	0e	pas-	0cc	pas-
1AA	-sus	1A	-sus	1f	-sus	1cc	-sus
=122	=122	=122	=122	=122	=122	=122	=122
0GG	et	0B-	et	0g	et	0dd	et
1AA	se-	1A	se-	1f	se-	1dd	se-
=123	=123	=123	=123	=123	=123	=123	=123
0BB-	-pul-	0G	-pul-	0f	-pul-	1.b-	-pul-
.	.	.	.	.	.	2a	.
1C	-tus	1G	-tus	1e	-tus	1g	-tus
=124	=124	=124	=124	=124	=124	=124	=124
0.F	est	0.F	est	0.f	est	0.a	est
=125	=125	=125	=125	=125	=125	=125	=125
1.BB-	pas-	0d	pas-	0d	pas-	0b-	pas-
2AA	.	.	.	.	.	.	.
1GG	-sus	1d	-sus	1g	-sus	1b-	-sus
=126	=126	=126	=126	=126	=126	=126	=126
0C	et	0c	et	1.e	et	0a	et
.	.	.	.	2f	.	.	.
1E	se-	1B-	se-	1g	se-	1g	se-
=127	=127	=127	=127	=127	=127	=127	=127
0D	-pul-	0A	-pul-	0f#	-pul-	0f#	-pul-
1D	-tus	1A	-tus	1f#	-tus	1f#	-tus
=128	=128	=128	=128	=128	=128	=128	=128
*M2/2	*	*M2/2	*	*M2/2	*	*M2/2	*
2GG	.	2G	.	2g	.	2g	.
2GG	Et	2G	Et	2r	.	2g	Et
=129	=129	=129	=129	=129	=129	=129	=129
2D	re-	2A	re-	1r	.	2f	re-
2D	-sur-	2A	-sur-	.	.	2f	-sur-
=130	=130	=130	=130	=130	=130	=130	=130
4GG	-re-	1B-	-re-	1r	.	1g	-re-
4AA	.	.	.	.	.	.	.
4BB-	.	.	.	.	.	.	.
4C	.	.	.	.	.	.	.
=131	=131	=131	=131	=131	=131	=131	=131
1D	-xit	1A	-xit	1r	.	2d	-xit
.	.	.	.	.	.	2dd	ter-
=132	=132	=132	=132	=132	=132	=132	=132
[1GG	ter-	1r	.	[1d	ter-	[1b-	.
=133	=133	=133	=133	=133	=133	=133	=133
2GG]	.	1r	.	2d]	.	2b-]	.
4AA	-ti-	.	.	4c	-ti-	4a	-ti-
4AA	-a	.	.	4c	-a	4a	-a
=134	=134	=134	=134	=134	=134	=134	=134
1BB-	di-	1r	.	1B-	di-	1g	di-
=135	=135	=135	=135	=135	=135	=135	=135
2C	-e	2r	.	2A	-e	2f	-e
2F	se-	2c	se-	2f	se-	2a	se-
=136	=136	=136	=136	=136	=136	=136	=136
1BB-	-cun-	1d	-cun-	1d	-cun-	1b-	-cun-
=137	=137	=137	=137	=137	=137	=137	=137
2FF	-dum	2c	-dum	2f	-dum	2a	-dum
2GG	scrip-	2B-	scrip-	2d	scrip-	[2g	scrip-
=138	=138	=138	=138	=138	=138	=138	=138
1D	-tu-	1A	-tu-	1d	-tu-	2g]	.
.	.	.	.	.	.	2f#	-tu-
=139	=139	=139	=139	=139	=139	=139	=139
1GG	-ras	1G	-ras	1B	-ras	1g	-ras
=140	=140	=140	=140	=140	=140	=140	=140
*M3/1	*	*M3/1	*	*M3/1	*	*M3/1	*
0G	Et	0B-	Et	0d	Et	0g	Et
1F	as-	1c	as-	1f	as-	1a	as-
=141	=141	=141	=141	=141	=141	=141	=141
0BB-	-cen-	0d	-cen-	1.d	-cen-	0b-	-cen-
.	.	.	.	2e	.	.	.
1BB-	-dit	1d	-dit	1f	-dit	1b-	-dit
=142	=142	=142	=142	=142	=142	=142	=142
0F	in	0c	in	0f	as-	0a	in
1F	cae-	1c	cae-	1f	-cen-	1a	cae-
=143	=143	=143	=143	=143	=143	=143	=143
0F	-lum	0c	-lum	1.f	-dit	0a	-lum
.	.	.	.	2e	in	.	.
1F	se-	1c	se-	2f	cae-	1a	[se-
.	.	.	.	2e	.	.	.
=144	=144	=144	=144	=144	=144	=144	=144
0BB-	-det	0d	-det	0d	-as-	0b-	-det
1FF	ad	1c	ad	1f	-cen-	1a	ad]
=145	=145	=145	=145	=145	=145	=145	=145
1.GG	de-	1.B-	de-	1.g	-dit	0b-	de-
2GG	-xte-	2B-	-xte-	2g	in	.	.
1D	-ram	1A	-ram	1f	cae-	1a	-xte-
=146	=146	=146	=146	=146	=146	=146	=146
0G	Pa-	0B-	Pa-	1.d	.	0g	-ram
.	.	.	.	2e	.	.	.
1F	.	1A	-tris	2d	.	1a	Pa-
.	.	.	.	2e	.	.	.
=147	=147	=147	=147	=147	=147	=147	=147
0BB-	-tris	0d	se-	0f	-lum	0b-	-tris
1BB-	se-	1d	-det	1f	se-	1b-	se-
=148	=148	=148	=148	=148	=148	=148	=148
0F	-det	0c	ad	0f	-det	0a	-det
1F	ad	1c	de-	1f	ad	1a	ad
=149	=149	=149	=149	=149	=149	=149	=149
0F	de-	0c	-xte-	1.f	de-	0a	de-
.	.	.	.	2e	.	.	.
1F	-xte-	1c	-ram	2f	-xte-	1a	-xte-
.	.	.	.	2e	.	.	.
=150	=150	=150	=150	=150	=150	=150	=150
1G	-ram	1B-	Pa-	1d	-ram	1g	-ram
0D	Pa-	0A	.	0d	Pa-	0f#	Pa-
=151	=151	=151	=151	=151	=151	=151	=151
0.GG	-tris	0.G	-tris	0.d	-tris	0.g	-tris
=152	=152	=152	=152	=152	=152	=152	=152
1G	ad	1B-	ad	1d	ad	1g	ad
1.F	de-	1.c	de-	1.f	de-	1.a	de-
2F	-xte-	2c	-xte-	2f	-xte-	2a	-xte-
=153	=153	=153	=153	=153	=153	=153	=153
1G	-ram	1B-	-ram	1d	-ram	1g	-ram
1C	Pa-	0A	Pa-	1e-	Pa-	1g	Pa-
1D	.	.	.	1d	.	1f#	.
=154	=154	=154	=154	=154	=154	=154	=154
0.G	-tris	0.G	-tris	0.d	-tris	0.g	-tris
=155	=155	=155	=155	=155	=155	=155	=155
0.r	.	1B-	Et	1G	Et	1g	Et
.	.	1B-	i-	1g	i-	1g	i-
.	.	1G	-te-	1e	-te-	1g	-te-
=156	=156	=156	=156	=156	=156	=156	=156
0.r	.	0A	-rum	0f	-rum	0dd	-rum
.	.	1B-	ven-	1g	ven-	1dd	ven-
=157	=157	=157	=157	=157	=157	=157	=157
0.r	.	0c	-tu-	1c	-tu-	1ee-	-tu-
.	.	.	.	1.G	.	1.dd	.
.	.	1B	-rus	.	.	.	.
.	.	.	.	2G	-rus	2dd	-rus
=158	=158	=158	=158	=158	=158	=158	=158
1r	.	0c	est	0.c	est	0cc	est
1r	.	.	.	.	.	.	.
1G	Et	1B-	et	.	.	1dd	et
=159	=159	=159	=159	=159	=159	=159	=159
1.D	i-	1.F	i-	0.r	.	1dd	i-
.	.	.	.	.	.	1dd	-te-
2D	-te-	2F	-te-	.	.	.	.
1E	-rum	1G	-rum	.	.	2cc	-rum
.	.	.	.	.	.	2b-	.
=160	=160	=160	=160	=160	=160	=160	=160
1.F	ven-	2c	ven-	0.r	.	0a	ven-
.	.	2B-	.	.	.	.	.
.	.	2A	.	.	.	.	.
2E	.	2G	.	.	.	.	.
1D	.	1F	.	.	.	[1dd	-tu-
=161	=161	=161	=161	=161	=161	=161	=161
0AA	-tu-	0E	-tu-	0.r	.	1dd]	.
.	.	.	.	.	.	2cc#	.
.	.	.	.	.	.	2b	.
1AA	-rus	1E	-rus	.	.	1cc#	-rus
=162	=162	=162	=162	=162	=162	=162	=162
0.D	est	0D	est	1r	.	0dd	est
.	.	.	.	1r	.	.	.
.	.	1A	cum	1d	cum	1dd	cum
=163	=163	=163	=163	=163	=163	=163	=163
0.r	.	1.B-	glo-	1.g	glo-	1.dd	glo-
.	.	4A	-ri-	4f	-ri-	2ee	-ri-
.	.	4G	.	4e	.	.	.
.	.	2A	-a	1d	-a	1ff	-a
.	.	2B-	.	.	.	.	.
=164	=164	=164	=164	=164	=164	=164	=164
0.r	.	1.c	ju-	0c	ju-	0ee	ju-
.	.	2c	-di-	.	.	.	.
.	.	1B-	-ca-	1d	-[di]-	1dd	-di-
=165	=165	=165	=165	=165	=165	=165	=165
0.r	.	0A	.	1.f	-ca-	0cc	-ca-
.	.	.	.	2f	-re	.	.
.	.	1G	.	1g	vi-	1b-	-re
=166	=166	=166	=166	=166	=166	=166	=166
1r	.	0F#	.	0.d	-vos	0a	vi-
1r	.	.	.	.	.	.	.
2D	ju-	1F#	-re	.	.	1a	-vos
2D	-di-	.	.	.	.	.	.
=167	=167	=167	=167	=167	=167	=167	=167
1.D	-ca-	1.F#	ju-	0.r	.	1.a	ju-
2C	.	2A	-di-	.	.	2a	-di-
1BB-	.	1G	-ca-	.	.	1b-	-ca-
=168	=168	=168	=168	=168	=168	=168	=168
0AA	.	1G	-re	0.r	.	0cc	-re
.	.	0F#	vi-	.	.	.	.
1AA	-re	.	.	.	.	1cc	vi-
=169	=169	=169	=169	=169	=169	=169	=169
0GG	vi-	0.G	-vos	0.r	.	0.b-	-vos
1GG	-vos	.	.	.	.	.	.
=170	=170	=170	=170	=170	=170	=170	=170
0.r	.	1G	et	1g	et	1b-	et
.	.	1.G	mor-	1c	mor-	2cc	mor-
.	.	.	.	.	.	2b-	.
.	.	.	.	1d	-tu-	2.a	.
.	.	2F#	-tu-	.	.	.	.
.	.	.	.	.	.	4a	-tu-
=171	=171	=171	=171	=171	=171	=171	=171
0.r	.	0.G	-os	0.G	-os	0.g	-os
=172	=172	=172	=172	=172	=172	=172	=172
0G	cu-	0d	cu-	0g	cu-	0b-	cu-
1D	-jus	1d	-jus	1f	-jus	1a	-jus
=173	=173	=173	=173	=173	=173	=173	=173
1.G	Re-	0d	Re-	0g	Re-	0b-	Re-
2F	.	.	.	.	.	.	.
1E	-gni	1G	-gni	1g	-gni	1cc	-gni
=174	=174	=174	=174	=174	=174	=174	=174
0D	cu-	1.A	cu-	0f	cu-	0dd	cu-
.	.	2B-	.	.	.	.	.
1D	-jus	2A	-jus	1d	-jus	1dd	-jus
.	.	2B-	.	.	.	.	.
=175	=175	=175	=175	=175	=175	=175	=175
0C	Re-	0c	Re-	0e	Re-	0g	Re-
1C	.	1c	.	1e	.	1g	.
=176	=176	=176	=176	=176	=176	=176	=176
0F	-non	0A	-non	0f	-non	0cc	-non
1G	e-	1B-	e-	1d	e-	1b-	e-
=177	=177	=177	=177	=177	=177	=177	=177
1C	-rit	1B-	-rit	1e-	-rit	1g	-rit
0D	fi-	0A	fi-	0d	fi-	0a	fi-
=178	=178	=178	=178	=178	=178	=178	=178
0.G	-nis	0.B-	-nis	0.d	-nis	0.g	-nis
=179	=179	=179	=179	=179	=179	=179	=179
0G	cu-	0B-	cu-	0d	cu-	0g	cu-
1D	-jus	1A	-jus	1f	-jus	1f	-jus
=180	=180	=180	=180	=180	=180	=180	=180
1.G	Re-	1.B-	Re-	0g	Re-	0g	Re-
2F	.	2A	.	.	.	.	.
1E	-gni	2B-	.	1g	-gni	1g	-gni
.	.	2c	.	.	.	.	.
=181	=181	=181	=181	=181	=181	=181	=181
0D	cu-	0d	.	1.f	cu-	0f	cu-
.	.	.	.	2e	.	.	.
1D	-jus	1d	-gni	1d	-jus	1f	-jus
=182	=182	=182	=182	=182	=182	=182	=182
0C	Re-	0G	cu-	1.e	Re-	0e	Re-
.	.	.	.	2d	.	.	.
1C	.	1G	-jus	1c	-gni	1e	.
=183	=183	=183	=183	=183	=183	=183	=183
1.C	-non	0c	Re-	0e	non	0g	-non
2BB-	.	.	.	.	.	.	.
1AA	.	1c	.	1f	.	1a	non
=184	=184	=184	=184	=184	=184	=184	=184
1BB-	non	1d	-non	1g	non	1b-	e-
2C	e-	2c	e-	2f	e-	2a	-rit
2C	-rit	2B-	-rit	2g	-rit	1g	fi-
1D	fi-	1A	fi-	1f#	fi-	.	.
.	.	.	.	.	.	2f#	.
=185	=185	=185	=185	=185	=185	=185	=185
0.GG	-nis	0.B	-nis	0.g	-nis	0.g	-nis
=186	=186	=186	=186	=186	=186	=186	=186
0G	Et	0G	Et	0d	Et	0b-	Et
1D	in	1F	in	1d	in	1a	in
=187	=187	=187	=187	=187	=187	=187	=187
1.G	Spi-	1.G	Spi-	1.d	Spi-	1.b-	Spi-
2F	-ri-	2D	-ri-	2d	-ri-	2dd	-ri-
1E	-tum	1G	-tum	1e	-tum	1cc#	-tum
=188	=188	=188	=188	=188	=188	=188	=188
0D	et	1F#	et	0A	et	0dd	et
.	.	0F#	in	.	.	.	.
1D	in	.	.	1d	in	1a	in
=189	=189	=189	=189	=189	=189	=189	=189
1C	Spi-	1.G	Spi-	1e	Spi-	1cc	Spi-
2C	-ri-	.	.	2e	-ri-	2cc	-ri-
2BB-	.	2G	-ri-	2g	.	2cc	.
1C	-San-	2G	.	1e	-San-	1cc	-San-
.	.	2G	-San-	.	.	.	.
=190	=190	=190	=190	=190	=190	=190	=190
1GG	-ctum	1G	-ctum	1d	-ctum	1b-	-ctum
1.D	Do-	1.G	Do-	1.d	Do-	1.a	Do-
2D	-mi-	2F#	-mi-	2d	-mi-	2a	-mi-
=191	=191	=191	=191	=191	=191	=191	=191
0.GG	-num	0.G	-num	0.d	-num	0.b-	-num
=192	=192	=192	=192	=192	=192	=192	=192
0G	et	0B-	et	0g	et	0dd	et
1D	vi-	1A	vi-	1f	vi-	1dd	vi-
=193	=193	=193	=193	=193	=193	=193	=193
1.G	-vi-	1.B-	-vi-	1.g	-vi-	1.dd	-vi-
2F	-fi-	2A	-fi-	2d	-fi-	2dd	-fi-
1E	-can-	1G	-can-	1g	-can-	1cc#	-can-
=194	=194	=194	=194	=194	=194	=194	=194
0.D	-tem	0.A	-tem	0.f	-tem	0.dd	-tem
=195	=195	=195	=195	=195	=195	=195	=195
1.G	et	1.B-	et	1.g	et	1.dd	et
2F	vi-	2A	vi-	2a	vi-	2dd	vi-
1G	-vi-	2B-	-vi-	1g	-vi-	2dd	-vi-
.	.	2c	-fi-	.	.	2ee	-fi-
=196	=196	=196	=196	=196	=196	=196	=196
1D	-fi-	0d	-can-	1a	-fi-	1ff	-can-
0A	-can-	.	.	0a	-can-	0ee	-tem
.	.	1c#	.	.	.	.	.
=197	=197	=197	=197	=197	=197	=197	=197
0D	-tem	0d	-tem	0f	-tem	0dd	.
1BB	vi-	1G	vi-	1d	vi-	1dd	vi-
=198	=198	=198	=198	=198	=198	=198	=198
0C	-vi-	1G	-vi-	0e	-vi-	0cc	-vi-
.	.	1E	-fi-	.	.	.	.
1GG	-fi-	[1G	-can-	1d	-fi-	1b-	-fi-
=199	=199	=199	=199	=199	=199	=199	=199
0.D	-can-	1G]	.	0.d	-can-	0.a	-can-
.	.	2F#	.	.	.	.	.
.	.	2E	.	.	.	.	.
.	.	1F#	.	.	.	.	.
=200	=200	=200	=200	=200	=200	=200	=200
1GG	-tem	1G	-tem	1d	-tem	1b-	-tem
1D	qui	1B-	qui	1f	qui	1dd	qui
1BB-	ex	1B-	ex	1f	ex	1dd	ex
=201	=201	=201	=201	=201	=201	=201	=201
0F	Pa-	0A	Pa-	0f	Pa-	0cc	Pa-
1BB-	-tre	1B-	-tre	1f	-tre	1dd	-tre
=202	=202	=202	=202	=202	=202	=202	=202
1.F	Fi-	1.A	Fi-	1.f	Fi-	1.cc	Fi-
2F	-li-	2A	-li-	2f	-li-	2cc	-li-
1F	-o	1A	-o	1f	-o	1cc	-o
=203	=203	=203	=203	=203	=203	=203	=203
1.BB-	Fi-	1.B-	Fi-	1.f	Fi-	1.dd	Fi-
2BB-	-li-	2B-	-li-	2f	-li-	2dd	-li-
2BB-	-o-	2B-	-o-	2f	-o-	2dd	-o-
2BB-	-que	2B-	-que	2f	-que	2dd	-que
=204	=204	=204	=204	=204	=204	=204	=204
1BB-	pro-	1B-	pro-	1f	pro-	1dd	pro-
1C	-ce-	2A	-ce-	1e-	-ce-	2cc	-ce-
.	.	2G	.	.	.	2b-	.
1D	.	1F#	.	2d	.	1a	.
.	.	.	.	2c	.	.	.
=205	=205	=205	=205	=205	=205	=205	=205
0G	-dit	0G	-dit	0d	-dit	0b-	-dit
1GG	qui	1G	qui	1d	qui	1dd	qui
=206	=206	=206	=206	=206	=206	=206	=206
0GG	cum	0G	cum	0d	cum	0b-	cum
1GG	Pa-	1G	Pa-	1d	Pa-	1b-	Pa-
=207	=207	=207	=207	=207	=207	=207	=207
0FF	-tre	0A	-tre	0f	-tre	0cc	-tre
1F	et	1A	et	1f	et	1cc	et
=208	=208	=208	=208	=208	=208	=208	=208
1D	Fi-	1.B-	Fi-	2d	Fi-	1dd	Fi-
.	.	.	.	2e	.	.	.
1F	.	.	.	2f	-li-	1cc	-li-
.	.	2A	.	2e	.	.	.
1G	-li-	1G	-li-	1d	.	1b-	.
=209	=209	=209	=209	=209	=209	=209	=209
0D	-o	0F	-o	0d	-o	0a	-o
1D	si-	1F	si-	1d	si-	1a	si-
=210	=210	=210	=210	=210	=210	=210	=210
0BB-	-mul	0B-	-mul	1f	-mul	0dd	-mul
.	.	.	.	0g	a-	.	.
1E-	a-	1c	a-	.	.	1ee-	a-
=211	=211	=211	=211	=211	=211	=211	=211
1BB-	-do-	1B-	-do-	1f	-do-	1dd	-do-
0F	-ra-	0A	-ra-	0f	-ra-	0cc	-ra-
=212	=212	=212	=212	=212	=212	=212	=212
0BB-	-tur	0B-	-tur	0f	-tur	0b-	-tur
1BB-	et	1B-	et	1f	et	1dd	et
=213	=213	=213	=213	=213	=213	=213	=213
1.G	con-	0B-	con-	0d	con-	1.b-	con-
2A	-glo-	.	.	.	.	2cc	.
2B-	-ri-	1G	-glo-	1d	-glo-	1dd	.
2B-	-fi-	.	.	.	.	.	.
=214	=214	=214	=214	=214	=214	=214	=214
1C	-ca-	0A	-ri-	0e	-ri-	0cc	-glo-
1C	-tur	.	.	.	.	.	.
1GG	con-	1B-	-fi-	1d	-fi-	1b-	-ri-
=215	=215	=215	=215	=215	=215	=215	=215
1C	-glo-	1G	-ca-	1c	-ca-	1g	-fi-
2D	-ri-	0F#	.	0d	.	0a	-ca-
2D	-fi-	.	.	.	.	.	.
1D	-ca-	.	.	.	.	.	.
=216	=216	=216	=216	=216	=216	=216	=216
1G	-tur	1G	-tur	1d	-tur	1g	-tur
1G	qui	1G	qui	1d	qui	1b-	qui
1G	lo-	1G	lo-	1d	lo-	1b-	lo-
=217	=217	=217	=217	=217	=217	=217	=217
1.D	-cu-	1.A	-cu-	1.f	-cu-	1.a	-cu-
2E	-tus	2A	-tus	2e	-tus	2a	-tus
1F	est	1A	est	1d	est	1a	est
=218	=218	=218	=218	=218	=218	=218	=218
1G	per	1d	per	1g	per	1b-	per
1A	Pro-	1c	Pro-	1e	Pro-	1a	Pro-
1A	-phe-	1c	-phe-	1e	-phe-	1a	-phe-
=219	=219	=219	=219	=219	=219	=219	=219
0.D	-tas	0.d	-tas	0.d	-tas	0.a	-tas
=220	=220	=220	=220	=220	=220	=220	=220
1BB-	Et	1d	Et	1f	Et	1b-	Et
1E-	u-	1B-	u-	1g	u-	1g	u-
1F	-nam	1c	-nam	1f	-nam	1a	-nam
=221	=221	=221	=221	=221	=221	=221	=221
0B-	San-	0d	San-	0f	San-	0b-	San-
1B-	-ctam	1d	-ctam	1f	-ctam	1b-	-ctam
=222	=222	=222	=222	=222	=222	=222	=222
1B-	San-	1d	San-	1f	San-	1b-	San-
1F	-ctam	1c	-ctam	1f	-ctam	1a	-ctam
1G	Ca-	1B-	Ca-	1d	Ca-	1g	Ca-
=223	=223	=223	=223	=223	=223	=223	=223
1.D	-tho-	1.A	-tho-	1.d	-tho-	1.f	-tho-
2D	-li-	2A	-li-	2d	-li-	2f	-li-
1D	-cam	1A	-cam	1d	-cam	1f	-cam
=224	=224	=224	=224	=224	=224	=224	=224
1BB-	et	1d	et	1d	et	0.r	.
1D	a-	1B-	a-	1f	a-	.	.
1E	-po-	1c	-po-	1c	-po-	.	.
=225	=225	=225	=225	=225	=225	=225	=225
1.F	-sto-	1.A	-sto-	1.c	-sto-	1f	et
.	.	.	.	.	.	1a	a-
2F	-li-	2A	-li-	2c	-li-	.	.
1F	-cam	1B-	-cam	1c	-cam	1b-	-po-
=226	=226	=226	=226	=226	=226	=226	=226
1C	San-	1c	San-	1g	San-	1.cc	-sto-
1E	-ctam	1G	-ctam	1g	-ctam	.	.
.	.	.	.	.	.	2cc	-li-
1F	Ca-	1A	Ca-	1f	Ca-	1cc	.
=227	=227	=227	=227	=227	=227	=227	=227
1.G	-tho-	1.B-	-tho-	1.d	-tho-	1g	-San-
.	.	.	.	.	.	1b-	-ctam
2G	-li-	2B-	-li-	2d	-li-	.	.
1G	.	1c	.	1e	.	1cc	Ca-
=228	=228	=228	=228	=228	=228	=228	=228
1GG	-San-	1d	-San-	1g	-San-	1.dd	-tho-
1BB-	-ctam	1d	-ctam	1d	-ctam	.	.
.	.	.	.	.	.	2dd	-li-
1C	Ca-	2c	Ca-	1e	Ca-	1cc	.
.	.	2B-	.	.	.	.	.
=229	=229	=229	=229	=229	=229	=229	=229
1.D	-tho-	1.A	-tho-	1.f	-tho-	0.r	.
2D	-li-	2A	-li-	2f	-li-	.	.
1D	.	1A	.	1f	.	.	.
=230	=230	=230	=230	=230	=230	=230	=230
1G	-Ec-	1G	-Ec-	1B-	-Ec-	1b-	-Ec-
1.D	-cle-	1.A	-cle-	1.d	-cle-	1a	-cle-
.	.	.	.	.	.	1a	-si-
2D	-si-	2A	-si-	2d	-si-	.	.
=231	=231	=231	=231	=231	=231	=231	=231
0.G	-am	0.B-	-am	0.d	-am	0g	-am
.	.	.	.	.	.	1g	Con-
=232	=232	=232	=232	=232	=232	=232	=232
1r	.	1r	.	1r	.	1.a	-fi-
1r	.	1r	.	1r	.	.	.
.	.	.	.	.	.	2a	-te-
1GG	Con-	1G	Con-	1d	Con-	2b-	-or
.	.	.	.	.	.	2b-	con-
=233	=233	=233	=233	=233	=233	=233	=233
1.D	-fi-	1.A	-fi-	1.d	-fi-	1.a	-fi-
2D	-te-	2A	-te-	2d	-te-	2a	-te-
1GG	-or	1B-	-or	1d	-or	1g	-or
=234	=234	=234	=234	=234	=234	=234	=234
1r	.	1r	.	1r	.	1a	u-
1r	.	1r	.	1r	.	1a	-num
1G	con-	1G	con-	1g	con-	1b-	Ba-
=235	=235	=235	=235	=235	=235	=235	=235
1.D	-fi-	1.A	-fi-	1.f	-fi-	0a	-ptis-
2D	-te-	2A	-te-	2f	-te-	.	.
1G	.	1B-	.	1g	.	1g	-ma
=236	=236	=236	=236	=236	=236	=236	=236
0F	-u-	0A	-u-	0f	-u-	0cc	u-
1F	-num	1A	-num	1f	-num	1cc	-num
=237	=237	=237	=237	=237	=237	=237	=237
1BB-	u-	1B-	u-	1f	u-	1dd	u-
1F	.	1A	.	1f	-num	1cc	-num
1G	-Ba-	1G	-Ba-	1d	Ba-	1b-	Ba-
=238	=238	=238	=238	=238	=238	=238	=238
0D	-ptis-	0F	-ptis-	0d	-ptis-	0a	-ptis-
1D	-ma	1F	-ma	1d	-ma	1a	-ma
=239	=239	=239	=239	=239	=239	=239	=239
2.F	in	2.A	in	2.f	re-	2.cc	re-
4F	re-	4A	re-	4f	-sur-	4cc	-sur-
2F	-mis-	2A	-mis-	2f	-re-	2cc	-re-
2F	-si-	2A	-si-	2f	-cti-	2cc	-cti-
2F	-o-	2A	-o-	2f	-o-	2cc	-o-
2F	-nem	2A	-nem	2f	-nem	2cc	-nem
=240	=240	=240	=240	=240	=240	=240	=240
1BB-	pec-	1B-	pec-	1d	mor-	1dd	mor-
1F	-ca-	1A	-ca-	1f	-tu-	1cc	-tu-
1G	-to-	1G	-to-	1d	-o-	1b-	-o-
=241	=241	=241	=241	=241	=241	=241	=241
0.D	-rum	0.F	-rum	0.d	-rum	0.a	-rum
=242	=242	=242	=242	=242	=242	=242	=242
0BB-	et	0d	et	0f	et	0dd	et
1C	ex-	2c	ex-	1e	ex-	1ee	ex-
.	.	2B-	.	.	.	.	.
=243	=243	=243	=243	=243	=243	=243	=243
0D	-spe-	0A	-spe-	0d	-spe-	0ff	-spe-
1BB-	-cto	1B-	-cto	1f	-cto	1dd	-cto
=244	=244	=244	=244	=244	=244	=244	=244
1.FF	re-	1.A	re-	1.f	re-	1.cc	re-
2FF	-sur-	2A	-sur-	2f	-sur-	2cc	-sur-
2GG	-re-	2G	-re-	2d	-re-	2b-	-re-
2GG	-cti-	2G	-cti-	2d	-cti-	2b-	-cti-
=245	=245	=245	=245	=245	=245	=245	=245
0D	-o-	0F#	-o-	0d	-o-	0a	-o-
1G	-nem	1G	-nem	1d	-nem	1g	-nem
=246	=246	=246	=246	=246	=246	=246	=246
1.G	mor-	1.B-	mor-	1.g	mor-	1.b-	mor-
2A	.	2A	.	2f	.	2cc	.
1B-	.	1G	.	2e	.	1dd	.
.	.	.	.	2d	.	.	.
=247	=247	=247	=247	=247	=247	=247	=247
1F	-tu-	1A	-tu-	1a	-tu-	1cc	-tu-
0G	-o-	0G	-o-	0g	-o-	0b-	-o-
=248	=248	=248	=248	=248	=248	=248	=248
0D	-rum	0F	-rum	0f	-rum	0a	-rum
1D	et	1F	et	1f	et	1a	et
=249	=249	=249	=249	=249	=249	=249	=249
1BB-	vi-	1B-	vi-	1f	vi-	1dd	vi-
1BB-	-tam	1B-	-tam	1f	-tam	1dd	-tam
1C	ven-	1G	ven-	1e	ven-	1cc	ven-
=250	=250	=250	=250	=250	=250	=250	=250
1.D	-tu-	0F	-tu-	1.d	-tu-	0a	-tu-
2C	.	.	.	2e	.	.	.
1BB-	-ri	1B-	-ri	1f	-ri	1b-	-ri
=251	=251	=251	=251	=251	=251	=251	=251
1.FF	sae-	1.A	sae-	1.f	sae-	1.cc	sae-
2FF	-cu-	2A	-cu-	2f	-cu-	2cc	-cu-
1GG	-li	1G	-li	2d	-li	1cc	-li
.	.	.	.	2d	et	.	.
=252	=252	=252	=252	=252	=252	=252	=252
1D	vi-	1d	vi-	1d	vi-	0.r	.
1D	-tam	1d	-tam	1d	-tam	.	.
1G	ven-	1B-	ven-	1d	ven-	.	.
=253	=253	=253	=253	=253	=253	=253	=253
1.G	-tu-	1.d	-tu-	1.g	-tu-	1b-	ven-
.	.	.	.	.	.	2b-	-tu-
2A	.	2c	.	2f	.	2cc	.
1B-	-ri	1B-	-ri	2e	-ri	1dd	-ri
.	.	.	.	2d	.	.	.
=254	=254	=254	=254	=254	=254	=254	=254
1.F	sae-	1.A	sae-	1.f	sae-	1.cc	sae-
2F	-cu-	2A	-cu-	2f	-cu-	2cc	-cu-
1G	-li	1B-	-li	1g	-li	1b-	-li
=255	=255	=255	=255	=255	=255	=255	=255
1.G	sae-	1.G	sae-	1.g	sae-	1.dd	sae-
2G	-cu-	2A	-cu-	2f	-cu-	2cc	-cu-
1B-	-li	1B-	.	1d	-li	1b-	-li
=256	=256	=256	=256	=256	=256	=256	=256
0F	a-	1A	-a-	0a	a-	1cc	a-
.	.	0G	.	.	.	0b-	.
1G	.	.	.	1g	.	.	.
=257	=257	=257	=257	=257	=257	=257	=257
1D	-men	0F	-men	0f	-men	0a	-men
0D	et	.	.	.	.	.	.
.	.	1F	et	1f	et	1a	et
=258	=258	=258	=258	=258	=258	=258	=258
1BB-	vi-	1d	vi-	1d	vi-	1b-	vi-
1BB-	-tam	1d	-tam	1f	-tam	1b-	-tam
1BB-	ven-	1d	ven-	1d	ven-	1b-	ven-
=259	=259	=259	=259	=259	=259	=259	=259
0F	-tu-	0c	-tu-	0f	-tu-	1a	-tu-
.	.	.	.	.	.	0a	-ri
1F	-ri	1B-	-ri	1f	-ri	.	.
=260	=260	=260	=260	=260	=260	=260	=260
1G	sae-	2B-	sae-	2d	sae-	1b-	sae-
.	.	2A	-cu-	2d	-cu-	.	.
2.C	.	2A	-li	1e-	.	2cc	-cu-
.	.	2G	a-	.	.	2b-	.
4C	-cu-	.	.	.	.	.	.
1D	-li	1F#	-men	1d	-li	1a	-li
=261	=261	=261	=261	=261	=261	=261	=261
1G	a-	1d	a-	0.d	a-	1g	a-
1E-	.	2c	.	.	.	1b-	-men
.	.	2B-	.	.	.	.	.
1D	.	1A	.	.	.	1a	a-
=262	=262	=262	=262	=262	=262	=262	=262
*M2/2	*	*M2/2	*	*M2/2	*	*M2/2	*
2GG	-men	2B-	-men	2d	-men	2g	-men
2r	.	2r	.	2r	.	2r	.
=263	=263	=263	=263	=263	=263	=263	=263
2.C	a-	2.c	a-	4.g	a-	2.ee-	a-
.	.	.	.	8f	.	.	.
.	.	.	.	4e-	.	.	.
4BB-	.	4d	-men	4d	.	4dd	.
=264	=264	=264	=264	=264	=264	=264	=264
1C	.	1e-	a-	1c	.	1cc	.
=265	=265	=265	=265	=265	=265	=265	=265
[1GG	-men	[1d	-men.	[1d	-men.	[1dd	-men.
=266	=266	=266	=266	=266	=266	=266	=266
1GG]	.	1d]	.	1d]	.	1dd]	.
==	==	==	==	==	==	==	==
*-	*-	*-	*-	*-	*-	*-	*-
